src/assets/images/header/logo.svg

<svg width="239" height="201" viewBox="0 0 239 201" fill="none" xmlns="http://www.w3.org/2000/svg">
<g filter="url(#filter0_b)">
<path d="M0.499998 201C31.8203 201 62.8338 195.801 91.77 185.7C120.706 175.599 146.998 160.793 169.145 142.128C191.292 123.464 208.86 101.306 220.845 76.9194C232.831 52.5329 239 26.3957 239 -1.52588e-05L0.500006 4.83362e-06L0.499998 201Z" fill="url(#paint0_linear)" fill-opacity="0.03"/>
</g>
<path d="M82.4196 91.2823C81.1432 87.7342 78.5165 85.9597 74.5395 85.959H73.2847V107.845H74.5395C77.6134 107.845 79.8822 106.633 81.3459 104.21C82.5791 102.142 83.1958 99.5101 83.1958 96.3147C83.1928 94.414 82.9341 92.7366 82.4196 91.2823Z" fill="white"/>
<path d="M60.8837 91.5447C62.1616 95.0929 64.7879 96.8669 68.7628 96.8669H70.0176V74.9809H68.7628C65.6889 74.9809 63.4201 76.1925 61.9563 78.6157C60.7267 80.6833 60.1116 83.3151 60.1109 86.5112C60.1109 88.4097 60.3685 90.0876 60.8837 91.5447Z" fill="white"/>
<path d="M40 40.0275H56.6978V45.8239H45.9941V48.7222H54.8864V54.2222H45.9941V57.1534H56.6978V62.9499H40V40.0275Z" fill="white"/>
<path d="M65.095 40H86.7L75.8975 63.4164L65.095 40ZM75.8975 60.5182L84.8227 41.2186H67.0052L75.8975 60.5182Z" fill="white"/>
<path d="M95.3288 40.0275H112.027V45.8239H101.323V48.7222H110.215V54.2222H101.323V57.1534H112.027V62.9499H95.3288V40.0275Z" fill="white"/>
<path d="M122.302 62.9169V40H123.587L139.593 55.578V40H140.811V62.9224L122.302 62.9169Z" fill="white"/>
<path d="M158.3 62.9499V45.8239H149.638V40.0275H168.147V45.8239H159.485V62.9499H158.3Z" fill="white"/>
<path d="M49.8463 79.5489C51.2954 79.5489 52.4481 79.7684 53.3044 80.2075C54.2882 80.6875 55.1146 81.4383 55.6864 82.3718C56.2581 83.3053 56.5515 84.3826 56.532 85.4771C56.538 86.5321 56.2408 87.5667 55.6757 88.4576C55.1015 89.3714 54.2944 90.116 53.3374 90.6149C54.5257 91.034 55.5669 91.7891 56.3344 92.7885C57.131 93.7769 57.5615 95.0102 57.553 96.2796C57.5614 97.3889 57.2591 98.4785 56.6802 99.4248C56.1141 100.365 55.3141 101.142 54.3583 101.681C53.8509 101.953 53.3077 102.153 52.7445 102.274C52.1517 102.405 51.3613 102.471 50.3733 102.471H40.2294V79.5489H49.8463Z" fill="white"/>
<path d="M88.462 100.808C86.7384 99.3041 85.8876 97.048 85.9096 94.04H91.2779C91.2559 95.2915 91.6292 96.2466 92.3977 96.9053C93.1661 97.564 94.242 97.8934 95.6252 97.8934C96.767 97.8934 97.6672 97.7067 98.3259 97.3335C98.9846 96.9602 99.3139 96.3893 99.3139 95.6209C99.3139 94.9841 98.9791 94.5231 98.3094 94.2376C97.6698 93.9614 97.0016 93.757 96.3169 93.6283C95.6582 93.5076 95.252 93.4344 95.0983 93.4088C93.6062 93.1328 92.1407 92.7288 90.718 92.2012C89.5236 91.7571 88.4593 91.0211 87.6222 90.0604C86.7878 89.0944 86.3706 87.8209 86.3706 86.24C86.3706 84.6592 86.7878 83.3144 87.6222 82.2056C88.4565 81.0968 89.5708 80.2679 90.965 79.719C92.4198 79.159 93.9676 78.8796 95.5264 78.8956C97.5245 78.8956 99.2535 79.2689 100.714 80.0154C102.174 80.7619 103.321 81.8927 104.155 83.4077C104.542 84.0484 104.8 84.759 104.913 85.499C104.999 86.1486 105.043 86.8032 105.044 87.4586H99.6762C99.6762 86.273 99.3578 85.4002 98.7211 84.8403C98.0843 84.2804 97.0963 84.0005 95.757 84.0005C94.6811 84.0005 93.8468 84.1871 93.254 84.5604C92.6611 84.9336 92.3647 85.4386 92.3647 86.0754C92.3647 86.778 92.7599 87.2939 93.5504 87.6233C94.5214 88.007 95.5243 88.3046 96.5474 88.5125C98.5235 88.9077 100.066 89.2865 101.175 89.6488C102.292 90.0172 103.289 90.6833 104.056 91.5754C104.869 92.4976 105.275 93.793 105.275 95.4617C105.275 97.0425 104.836 98.4038 103.958 99.5456C103.079 100.687 101.921 101.56 100.483 102.164C99.0061 102.775 97.4213 103.083 95.8228 103.07C92.6392 103.066 90.1856 102.312 88.462 100.808Z" fill="white"/>
<path d="M118.778 102.471V85.3453H110.116V79.5489H128.626V85.3453H119.964V102.471H118.778Z" fill="white"/>
<path d="M134.85 79.5489H151.548V85.3453H140.844V88.2436H149.737V93.7436H140.844V96.6748H151.548V102.471H134.85V79.5489Z" fill="white"/>
<path d="M176.281 102.471H158.661V79.5489H167.586C169.496 79.5489 171.055 79.8892 172.263 80.5698C173.416 81.1974 174.374 82.1321 175.029 83.2705C175.691 84.4222 176.032 85.7299 176.017 87.0579C176.033 88.7254 175.475 90.3475 174.436 91.6523C173.441 92.963 172.04 93.9069 170.451 94.3364L176.281 102.471ZM159.879 81.5579V93.3813H168.343L159.879 81.5579ZM159.879 101.253H173.975L169.167 94.567L168.146 94.5999H159.879V101.253ZM160.736 80.7674L169.694 93.2825C171.132 92.995 172.425 92.2146 173.35 91.0759C174.3 89.9546 174.815 88.528 174.799 87.0579C174.812 85.8991 174.504 84.7592 173.909 83.7645C173.317 82.7769 172.446 81.9863 171.406 81.492C170.44 81.009 169.178 80.7674 167.619 80.7674H160.736Z" fill="white"/>
<defs>
<filter id="filter0_b" x="-29.5" y="-30" width="298.5" height="261" filterUnits="userSpaceOnUse" color-interpolation-filters="sRGB">
<feFlood flood-opacity="0" result="BackgroundImageFix"/>
<feGaussianBlur in="BackgroundImage" stdDeviation="15"/>
<feComposite in2="SourceAlpha" operator="in" result="effect1_backgroundBlur"/>
<feBlend mode="normal" in="SourceGraphic" in2="effect1_backgroundBlur" result="shape"/>
</filter>
<linearGradient id="paint0_linear" x1="281.622" y1="-75.6616" x2="-49.6239" y2="302.993" gradientUnits="userSpaceOnUse">
<stop stop-color="#C4C4C4"/>
<stop offset="1" stop-color="#C4C4C4" stop-opacity="0"/>
</linearGradient>
</defs>
</svg>

<svg width="239" height="201" fill="none" xmlns="http://www.w3.org/2000/svg"><g filter="url(#filter0_b)"><path d="M.5 201c31.32 0 62.334-5.199 91.27-15.3 28.936-10.101 55.228-24.907 77.375-43.572 22.147-18.664 39.715-40.822 51.7-65.209C232.831 52.533 239 26.396 239 0H.5v201z" fill="url(#paint0_linear)" fill-opacity=".03"/></g><path d="M82.42 91.282c-1.277-3.548-3.904-5.322-7.88-5.323h-1.255v21.886h1.255c3.073 0 5.342-1.212 6.806-3.635 1.233-2.068 1.85-4.7 1.85-7.895-.003-1.901-.262-3.578-.776-5.033zM60.884 91.545c1.278 3.548 3.904 5.322 7.879 5.322h1.255V74.98h-1.255c-3.074 0-5.343 1.212-6.807 3.635-1.23 2.067-1.844 4.7-1.845 7.895 0 1.899.258 3.577.773 5.034zM40 40.028h16.698v5.796H45.994v2.898h8.892v5.5h-8.892v2.931h10.704v5.797H40V40.028zM65.095 40H86.7L75.897 63.416 65.095 40zm10.802 20.518l8.926-19.3H67.005l8.892 19.3zM95.329 40.028h16.698v5.796h-10.704v2.898h8.892v5.5h-8.892v2.931h10.704v5.797H95.329V40.028zM122.302 62.917V40h1.285l16.006 15.578V40h1.218v22.922l-18.509-.005zM158.3 62.95V45.824h-8.662v-5.796h18.509v5.796h-8.662V62.95H158.3zM49.846 79.549c1.45 0 2.602.22 3.458.658a5.75 5.75 0 013.228 5.27 5.506 5.506 0 01-.856 2.98 6.082 6.082 0 01-2.339 2.158 6.508 6.508 0 012.997 2.174 5.505 5.505 0 011.219 3.49 5.94 5.94 0 01-.873 3.146 6.352 6.352 0 01-2.322 2.256 6.151 6.151 0 01-1.613.593c-.593.131-1.384.197-2.372.197H40.23V79.549h9.617zM88.462 100.808c-1.724-1.504-2.574-3.76-2.552-6.768h5.368c-.022 1.251.351 2.207 1.12 2.865.768.659 1.844.988 3.227.988 1.142 0 2.042-.186 2.7-.56.66-.373.989-.944.989-1.712 0-.637-.335-1.098-1.005-1.383a9.411 9.411 0 00-1.992-.61c-.659-.12-1.065-.194-1.219-.22a26.416 26.416 0 01-4.38-1.207 7.636 7.636 0 01-3.096-2.14c-.834-.967-1.251-2.24-1.251-3.821 0-1.58.417-2.926 1.251-4.034.835-1.11 1.949-1.938 3.343-2.487 1.455-.56 3.003-.84 4.561-.823 1.999 0 3.728.373 5.188 1.12 1.46.746 2.607 1.877 3.441 3.392.387.64.645 1.351.758 2.091.086.65.13 1.304.131 1.96h-5.368c0-1.186-.318-2.059-.955-2.619S97.096 84 95.757 84c-1.076 0-1.91.187-2.503.56-.593.374-.89.879-.89 1.515 0 .703.396 1.219 1.186 1.548a17.8 17.8 0 002.997.89c1.977.395 3.519.773 4.628 1.136a6.475 6.475 0 012.881 1.926c.813.923 1.219 2.218 1.219 3.887 0 1.58-.439 2.942-1.317 4.084-.879 1.141-2.037 2.014-3.475 2.618a11.937 11.937 0 01-4.66.906c-3.184-.004-5.637-.758-7.361-2.262zM118.778 102.471V85.345h-8.662V79.55h18.51v5.796h-8.662v17.126h-1.186zM134.85 79.549h16.698v5.796h-10.704v2.899h8.893v5.5h-8.893v2.93h10.704v5.797H134.85V79.549zM176.281 102.471h-17.62V79.549h8.925c1.91 0 3.469.34 4.677 1.02a7.117 7.117 0 012.766 2.701 7.431 7.431 0 01.988 3.788 7.263 7.263 0 01-1.581 4.594 7.44 7.44 0 01-3.985 2.684l5.83 8.135zm-16.402-20.913V93.38h8.464l-8.464-11.823zm0 19.695h14.096l-4.808-6.686-1.021.033h-8.267v6.653zm.857-20.486l8.958 12.516a6.303 6.303 0 003.656-2.207 6.114 6.114 0 001.449-4.018 6.278 6.278 0 00-.89-3.294 5.842 5.842 0 00-2.503-2.272c-.966-.483-2.228-.725-3.787-.725h-6.883z" fill="#fff"/><defs><linearGradient id="paint0_linear" x1="281.622" y1="-75.662" x2="-49.624" y2="302.993" gradientUnits="userSpaceOnUse"><stop stop-color="#C4C4C4"/><stop offset="1" stop-color="#C4C4C4" stop-opacity="0"/></linearGradient><filter id="filter0_b" x="-29.5" y="-30" width="298.5" height="261" filterUnits="userSpaceOnUse" color-interpolation-filters="sRGB"><feFlood flood-opacity="0" result="BackgroundImageFix"/><feGaussianBlur in="BackgroundImage" stdDeviation="15"/><feComposite in2="SourceAlpha" operator="in" result="effect1_backgroundBlur"/><feBlend in="SourceGraphic" in2="effect1_backgroundBlur" result="shape"/></filter></defs></svg>
